X: 0
T: Puer Nobis Nascitur
Z: Adapted by Michael Praetorius, 1609
Z: Copyright © 2006 by Douglas D. Anderson
Z: Released To The Public Domain
L: 1/4
M: 3/4
V: P1 name="Church Organ"
%%MIDI program 1 19
V: P2 name="French Horn"
%%MIDI program 2 60
V: P3 name="Trombone"
%%MIDI program 3 57
V: P4 name="Tuba"
%%MIDI program 4 58
K: D
[V: P1]  D | D2 E | F2 G | F2 E | D2 D | A2 A | (A B) c | d2 d | d2 A | d2 d | c2 A | B2 B | A2 G | A2 F | E2 F | D2 C | D2|]
[V: P2]  A, | B,2 C | D2 D | A, B, C | D2 B, | D G F | E2 E | F2 G | F2 E | D F E | E2 D | B,2 D | D2 B, | E2 D | C2 D | B,2 A, | A,2|]
[V: P3]  F, | F,2 A, | A,2 D, | D2 A, | F,2 D | D2 A, | A,2 A, | A,2 A, | A,2 A, | B,2 B, | A, =G, F, | G,2 G, | F,2 G, | E,2 A, | A,2 A, | G, F, E, | F,2|]
[V: P4]  D, | B,,2 A,, | D, C, B,, | A,, G,, A,, | D,2 G, | F, E, D, | C,2 A,, | D,2 D, | D,2 C, | B,, A,, ^G,, | A,,2 D, | G,,2 B,, | D,2 E, | C,2 D, | A,, G,, F,, | G,,2 A,, | D,,2|]

